X:5691
T:Ruaraidh's Hornpipe
O:england
M:4/4
L:1/8
Q:150
C:Stephen P. McNally
R:Hornpipe
N:For Ruaraidh Mitchell of Kilmore, now of Tulla Co.Clare
H:Written for his birth in 1994
K:D
F>G||:~A2 F>A B>GE>G|~A2 d>A e>Af>A|~A2 F>A B>Ge>G|(3def f>d e>gg>a|
~A2 F>A B>GE>G|~A2 f>A e>Ad>A|~A2 F>A B>Ge>G|1(3def g>e f>dd>B:|2(3def g
>e f>dd>e||
f>d(3def g>ec>A|d>B (3Bcd e>cA>F|G>Bd>g F>Ad>f|(3efd c>B A>GF>E|
~D2 F>A B>GE>G|~A2 d>A e>Af>A|g>fe>c A>ce>c|1(3def g>e f>dd>e:|2(3def g>
e f>dd2||


